src/status/symbolic/org.gnome.Shell.Extensions.GSConnect-symbolic.svg

<?xml version="1.0" encoding="UTF-8"?>
<svg width="16" height="16" version="1.1" xmlns="http://www.w3.org/2000/svg">
 <path d="m2.281 6c-0.71 0-1.281 0.571-1.281 1.281v7.438c0 0.71 0.571 1.28 1.281 1.28h4.439c0.71 0 1.28-0.57 1.28-1.28v-7.439c0-0.709-0.57-1.28-1.28-1.28h-4.44zm0.13 1h0.589c0 0.554 0.446 1 1 1h1c0.554 0 1-0.446 1-1h0.59c0.227 0 0.41 0.182 0.41 0.41v7.11c0 0.266-0.214 0.48-0.48 0.48h-4.04c-0.26533 5.54e-4 -0.48055-0.21467-0.48-0.48v-7.11c0-0.228 0.182-0.41 0.41-0.41z" fill="#363636"/>
 <path d="m3 2c-1.108 0-2 0.892-2 2v1h1v-1c0-0.554 0.446-1 1-1h10c0.554 0 1 0.446 1 1v7c0 0.554-0.446 1-1 1h-4v1h4c1.108 0 2-0.892 2-2v-7c0-1.108-0.892-2-2-2z" fill="#363636" stroke-linecap="square" stroke-width="2"/>
 <rect x="9" y="14" width="4" height="1" fill="#363636" stroke-linecap="square" stroke-width="2"/>
</svg>

<svg xmlns="http://www.w3.org/2000/svg" width="16" height="16">
    <path fill="#050505" fill-opacity=".7" d="M2.281 6C1.571 6 1 6.571 1 7.281v7.438c0 .71.571 1.28 1.281 1.28H6.72c.71 0 1.28-.57 1.28-1.28V7.28C8 6.571 7.43 6 6.72 6H2.28zm.13 1H3c0 .554.446 1 1 1h1c.554 0 1-.446 1-1h.59c.227 0 .41.182.41.41v7.11c0 .266-.214.48-.48.48H2.48a.479.479 0 0 1-.48-.48V7.41c0-.228.182-.41.41-.41z"/>
    <path fill="#050505" fill-opacity=".7" d="M3 2c-1.108 0-2 .892-2 2v1h1V4c0-.554.446-1 1-1h10c.554 0 1 .446 1 1v7c0 .554-.446 1-1 1H9v1h4c1.108 0 2-.892 2-2V4c0-1.108-.892-2-2-2zM9 14h4v1H9z"/>
</svg>
